packages/core/src/svgs/tokens/mono/GNS.svg

<svg width="24" height="24" viewBox="0 0 24 24" fill="none" xmlns="http://www.w3.org/2000/svg">
<path d="M16.064 6.88827C16.464 7.12356 16.7051 7.54121 16.7051 8.00003V16.0001C16.7051 16.7177 16.2581 17.2941 15.5287 17.2941C14.7993 17.2941 14.3523 16.7177 14.3523 16.0001V11.0177C14.3523 10.6235 13.6464 10.3765 13.2934 10.5589L8.64635 13.0118C8.33902 13.174 7.98038 13.2094 7.64723 13.1105C7.31409 13.0115 7.03295 12.7861 6.864 12.4824C6.78232 12.3331 6.73134 12.1688 6.71409 11.9994C6.69684 11.83 6.71364 11.6589 6.76352 11.4961C6.81341 11.3333 6.89535 11.182 7.00454 11.0515C7.11372 10.9208 7.24794 10.8134 7.39929 10.7353L14.7698 6.85887C15.1758 6.6471 15.6699 6.65886 16.064 6.88827Z" fill="white"/>
<path d="M8.46973 10.147C9.52859 9.83516 10.2932 9.80578 11.1461 9.80578C12.3991 9.80578 13.3227 10.1234 13.6579 10.5117C13.8815 10.5704 14.3521 10.7646 14.3521 11.0176V16C14.3521 16.7175 14.7992 17.294 15.5285 17.294C16.2579 17.294 16.705 16.7175 16.705 16V7.9999C16.705 7.54108 16.4579 7.11755 16.0579 6.88813C15.8611 6.77444 15.6389 6.71216 15.4117 6.70701C15.1844 6.70188 14.9596 6.75405 14.758 6.85872L8.46973 10.147Z" fill="white"/>
<path d="M12.6411 7.96461C13.3058 8.14108 14.353 8.60578 14.353 9.64698V10.9822C14.353 10.994 14.353 10.9705 14.353 10.9822V15.9704C14.353 16.6763 14.8 17.294 15.5294 17.294C16.2587 17.294 16.7058 16.7175 16.7058 16V7.9999C16.7058 7.54108 16.4587 7.11755 16.0588 6.88813C15.8619 6.77444 15.6397 6.71216 15.4126 6.70701C15.1853 6.70188 14.9604 6.75405 14.7588 6.85872L12.6411 7.96461Z" fill="white"/>
<path d="M10.6473 14.6177L9.17661 15.4765C8.96484 15.6001 8.86484 15.853 8.99425 16.0648C9.16485 16.3471 9.45314 16.7059 9.8649 16.9707C10.2883 17.2471 10.7413 17.306 11.0707 17.2942C11.2943 17.2766 11.4119 17.0824 11.4119 16.859V15.0589C11.4119 14.6648 11.0001 14.4118 10.6473 14.6236V14.6177Z" fill="white"/>
<path fill-rule="evenodd" clip-rule="evenodd" d="M12 20.8235C14.3401 20.8235 16.5845 19.8938 18.2392 18.2392C19.8938 16.5845 20.8235 14.3401 20.8235 12C20.8235 9.65983 19.8938 7.41554 18.2392 5.76081C16.5845 4.10608 14.3401 3.17647 12 3.17647C9.65983 3.17647 7.41554 4.10608 5.76081 5.76081C4.10608 7.41554 3.17647 9.65983 3.17647 12C3.17647 14.3401 4.10608 16.5845 5.76081 18.2392C7.41554 19.8938 9.65983 20.8235 12 20.8235ZM12 22C14.6522 22 17.1957 20.9464 19.071 19.071C20.9464 17.1957 22 14.6522 22 12C22 9.34785 20.9464 6.80429 19.071 4.92892C17.1957 3.05357 14.6522 2 12 2C9.34785 2 6.80429 3.05357 4.92892 4.92892C3.05357 6.80429 2 9.34785 2 12C2 14.6522 3.05357 17.1957 4.92892 19.071C6.80429 20.9464 9.34785 22 12 22Z" fill="white"/>
</svg>

<svg xmlns="http://www.w3.org/2000/svg" width="24" height="24" fill="none" viewBox="0 0 24 24">
    <path fill="#fff" d="M16.064 6.888c.4.236.641.653.641 1.112v8c0 .718-.447 1.294-1.176 1.294-.73 0-1.177-.576-1.177-1.294v-4.982c0-.395-.706-.642-1.059-.46l-4.647 2.454a1.33 1.33 0 0 1-1.782-.53 1.276 1.276 0 0 1 .535-1.747l7.37-3.876c.407-.212.9-.2 1.295.03"/>
    <path fill="#fff" d="M8.47 10.147c1.059-.312 1.823-.341 2.676-.341 1.253 0 2.177.317 2.512.706.224.058.694.253.694.506V16c0 .718.447 1.294 1.176 1.294.73 0 1.177-.576 1.177-1.294V8c0-.459-.247-.882-.647-1.112a1.35 1.35 0 0 0-1.3-.03z"/>
    <path fill="#fff" d="M12.641 7.965c.665.176 1.712.64 1.712 1.682v1.335c0 .012 0-.011 0 0v4.988c0 .706.447 1.324 1.176 1.324.73 0 1.177-.576 1.177-1.294V8c0-.459-.247-.882-.647-1.112a1.35 1.35 0 0 0-1.3-.03zm-1.994 6.653-1.47.858c-.212.124-.312.377-.183.589.17.282.46.64.87.906.424.276.877.335 1.207.323.223-.017.34-.212.34-.435v-1.8a.5.5 0 0 0-.764-.435z"/>
    <path fill="#fff" fill-rule="evenodd" d="M12 20.824a8.824 8.824 0 1 0 0-17.649 8.824 8.824 0 0 0 0 17.649M12 22a10 10 0 1 0 0-20 10 10 0 0 0 0 20" clip-rule="evenodd"/>
</svg>
